lib/resources/banners/logo-notext.svg

<?xml version="1.0" encoding="UTF-8"?>
<svg width="500px" height="537px" viewBox="0 0 500 537" version="1.1" xmlns="http://www.w3.org/2000/svg" xmlns:xlink="http://www.w3.org/1999/xlink">
    <title>Untitled</title>
    <defs>
        <linearGradient x1="50%" y1="0%" x2="50%" y2="100%" id="linearGradient-1">
            <stop stop-color="#FFDDF1" offset="0%"></stop>
            <stop stop-color="#FBC8E5" offset="42%"></stop>
            <stop stop-color="#DFA1C5" offset="42%"></stop>
            <stop stop-color="#F08CC7" offset="100%"></stop>
        </linearGradient>
        <linearGradient x1="50%" y1="0%" x2="50%" y2="100%" id="linearGradient-2">
            <stop stop-color="#FDEAF5" offset="0%"></stop>
            <stop stop-color="#FDEAF5" offset="42%"></stop>
            <stop stop-color="#F5DEEC" offset="42%"></stop>
            <stop stop-color="#FCE2F1" offset="100%"></stop>
        </linearGradient>
    </defs>
    <g id="Page-1" stroke="none" stroke-width="1" fill="none" fill-rule="evenodd">
        <path d="M388,101.5 C410.229461,101.5 430.354461,110.510269 444.922096,125.077904 C459.489731,139.645539 468.5,159.770539 468.5,182 L468.5,182 L468.5,502.5 C468.5,510.431613 463.687199,520.811642 456.096873,526.175085 C448.439818,531.58568 438.069962,532 437.25,532 C429.394269,532 420.502441,526.766712 411.760154,521.241893 C409.244077,519.651821 406.737761,518.065988 404.270664,516.658972 C385.739758,506.090565 376.480716,500.642015 370.04208,496.85318 C365.774249,494.341763 362.757137,492.56596 359.076976,490.5 L359.076976,490.5 L111,490.5 C88.7705388,490.5 68.6455388,481.489731 54.0779041,466.922096 C39.5102694,452.354461 30.5,432.229461 30.5,410 L30.5,410 L30.5,182 C30.5,159.770539 39.5102694,139.645539 54.0779041,125.077904 C68.6455388,110.510269 88.7705388,101.5 111,101.5 L111,101.5 Z M387.981772,135.5 L111,135.5 C98.2986544,135.5 86.7866602,140.592348 78.3944635,148.84687 C69.9922594,157.111236 64.7166767,168.545131 64.5065337,181.21174 L64.5,182.018228 L64.5,410 C64.5,422.701346 69.592348,434.21334 77.8468702,442.605536 C86.1112357,451.007741 97.5451306,456.283323 110.21174,456.493466 L111.018168,456.5 L367.454836,456.493135 C411.155545,481.702485 415.130488,483.998384 434.549516,494.857254 C434.59265,484.049131 434.542977,468.441042 434.495359,453.420907 L434.491067,452.066093 C434.434698,434.252525 434.385313,417.495241 434.493462,410.788773 L434.5,409.981772 L434.5,182 C434.5,169.298654 429.407652,157.78666 421.15313,149.394464 C412.888764,140.992259 401.454869,135.716677 388.78826,135.506534 L387.981772,135.5 Z" id="Rectangle-Copy" stroke="url(#linearGradient-2)" stroke-width="9" fill="url(#linearGradient-1)" fill-rule="nonzero"></path>
        <path d="M258,67 L258,106 L243,106 L243,67 C246.222222,67.9166667 248.722222,68.375 250.5,68.375 C252.277778,68.375 254.777778,67.9166667 258,67 Z M250,0 C266.568542,0 280,13.4314575 280,30 C280,46.5685425 266.568542,60 250,60 C233.431458,60 220,46.5685425 220,30 C220,13.4314575 233.431458,0 250,0 Z M250,15 C241.715729,15 235,21.7157288 235,30 C235,38.2842712 241.715729,45 250,45 C258.284271,45 265,38.2842712 265,30 C265,21.7157288 258.284271,15 250,15 Z" id="Combined-Shape" fill="#FCA0D6"></path>
        <path d="M29,207 C29.3003523,207 34.9999787,206.980728 35,207 C35.0041385,210.75 35,344 34.9958615,356 L24,356 C12.4020203,356 3,346.59798 3,335 L3,228 C3,216.40202 12.4020203,207 24,207 L29,207 Z M29,222 L24,222 C20.7616031,222 18.1224282,224.565575 18.0041385,227.775062 L18,228 L18,335 C18,338.238397 20.5655749,340.877572 23.7750617,340.995862 L24,341 L29,341 C32.2383969,341 34.8775718,338.434425 34.9958615,335.224938 L35,335 L35,228 C35,224.761603 32.4344251,222.122428 29.2249383,222.004138 L29,222 Z" id="Rectangle" fill="#FCA0D6" fill-rule="nonzero" opacity="0.9"></path>
        <path d="M490,207.008565 C490.300352,207.008565 495.999979,206.989293 496,207.008565 C496.004138,210.758566 496,344.008566 495.995862,356.008565 L485,356.008565 C473.40202,356.008565 464,346.606545 464,335.008565 L464,228.008565 C464,216.410586 473.40202,207.008565 485,207.008565 L490,207.008565 Z M490,222.008565 L485,222.008565 C481.761603,222.008565 479.122428,224.57414 479.004138,227.783627 L479,228.008565 L479,335.008565 C479,338.246962 481.565575,340.886137 484.775062,341.004427 L485,341.008565 L490,341.008565 C493.238397,341.008565 495.877572,338.442991 495.995862,335.233504 L496,335.008565 L496,228.008565 C496,224.770169 493.434425,222.130994 490.224938,222.012704 L490,222.008565 Z" id="Rectangle-Copy-2" fill="#FCA0D6" fill-rule="nonzero" opacity="0.9" transform="translate(480.000857, 281.504283) scale(-1, 1) translate(-480.000857, -281.504283) "></path>
        <path d="M182.1,347.6 C192.2,342.9 198.8,333.6 202.6,319 C205.6,307.9 204.5,281.6 200.8,273.5 C199.4,270.3 195.1,268.6 191.8,269.9 C187.9,271.4 186.7,275.5 187.9,283.1 C189.5,292.6 189.3,310.6 187.5,317.5 C184.3,329.8 177,336 165.5,336 C154.4,335.9 147.9,330.9 144.9,320 C143.1,313.6 143.4,296.1 145.5,285.2 C147.1,276.8 147.1,275.8 145.6,273.6 C142.7,269.1 136.4,269 133.6,273.3 C129.7,279.1 127.6,310.1 130.1,322.2 C132.2,332.1 138.4,341.6 145.6,346.1 C151.9,349.9 156.9,351 167,350.7 C174.8,350.4 177.5,349.8 182.1,347.6 Z M351.2,347.7 C360.4,343.2 366.4,335.2 369.5,323.3 C372.5,311.8 370.5,279.5 366.4,273.3 C363.6,269 357.3,269.1 354.4,273.5 C353,275.7 353,276.8 354.6,285.7 C356.6,297.2 356.8,313.6 355.1,320 C352.1,330.9 345.6,335.9 334.5,336 C323,336 315.7,329.8 312.5,317.5 C310.7,310.6 310.5,292.6 312.1,283.1 C313.3,275.4 312.2,271.7 308.1,270 C304.6,268.6 300.7,270.2 299.2,273.5 C295.5,281.6 294.4,307.9 297.4,319 C302,336.4 310.8,346.6 324.4,350.1 C326.1,350.5 331.6,350.8 336.6,350.7 C344.1,350.5 346.6,350 351.2,347.7 Z" id="Shape" fill="#666472" fill-rule="nonzero"></path>
        <path d="M243,396.1 C244.4,395.1 246.6,392.6 248,390.6 C250.2,387.2 250.6,387 251.5,388.6 C252,389.6 254.1,392.2 256.1,394.2 C259.4,397.7 260.2,398 265.1,398 C271.4,398 276,395.6 279.1,390.8 C280.8,388 281.1,386.3 280.7,379.5 C280.3,371.2 277.1,361.7 274.4,360.6 C272.5,359.9 269.7,362.9 270.6,364.9 C277.3,380.2 276.1,389.9 267.5,391.6 C260.6,392.9 256.8,388 254.7,375 C253.6,368 253.3,367.5 251,367.5 C248.3,367.5 247.9,368.3 246,378.2 C244.1,388 238.9,393.2 232.6,391.6 C225.6,389.9 224,382.4 228.5,371.5 C231.5,364.4 231.6,362.4 229.3,361.5 C227,360.7 224.7,363.5 222,370.8 C219.3,377.9 219,386.4 221.3,390.7 C225.3,398.2 236.2,400.9 243,396.1 Z" id="Path" fill="#989AA1" fill-rule="nonzero"></path>
        <path d="M152,379 C152.552285,379 153,379.447715 153,380 L153,390 C153,390.552285 152.552285,391 152,391 C151.447715,391 151,390.552285 151,390 L151,380 C151,379.447715 151.447715,379 152,379 Z M157.5,379 C158.052285,379 158.5,379.447715 158.5,380 L158.5,390 C158.5,390.552285 158.052285,391 157.5,391 C156.947715,391 156.5,390.552285 156.5,390 L156.5,380 C156.5,379.447715 156.947715,379 157.5,379 Z M163,379 C163.552285,379 164,379.447715 164,380 L164,390 C164,390.552285 163.552285,391 163,391 C162.447715,391 162,390.552285 162,390 L162,380 C162,379.447715 162.447715,379 163,379 Z" id="Combined-Shape" fill="#DFA1C5"></path>
        <path d="M338,379 C338.552285,379 339,379.447715 339,380 L339,390 C339,390.552285 338.552285,391 338,391 C337.447715,391 337,390.552285 337,390 L337,380 C337,379.447715 337.447715,379 338,379 Z M343.5,379 C344.052285,379 344.5,379.447715 344.5,380 L344.5,390 C344.5,390.552285 344.052285,391 343.5,391 C342.947715,391 342.5,390.552285 342.5,390 L342.5,380 C342.5,379.447715 342.947715,379 343.5,379 Z M349,379 C349.552285,379 350,379.447715 350,380 L350,390 C350,390.552285 349.552285,391 349,391 C348.447715,391 348,390.552285 348,390 L348,380 C348,379.447715 348.447715,379 349,379 Z" id="Combined-Shape-Copy" fill="#DFA1C5"></path>
    </g>
</svg>

<?xml version="1.0" encoding="UTF-8"?><svg width="500" height="537" viewBox="0 0 500 537" xmlns="http://www.w3.org/2000/svg"><defs><linearGradient x1="50%" y1="0%" x2="50%" y2="100%" id="b"><stop stop-color="#FFDDF1" offset="0%"/><stop stop-color="#FBC8E5" offset="42%"/><stop stop-color="#DFA1C5" offset="42%"/><stop stop-color="#F08CC7" offset="100%"/></linearGradient><linearGradient x1="50%" y1="0%" x2="50%" y2="100%" id="a"><stop stop-color="#FDEAF5" offset="0%"/><stop stop-color="#FDEAF5" offset="42%"/><stop stop-color="#F5DEEC" offset="42%"/><stop stop-color="#FCE2F1" offset="100%"/></linearGradient></defs><g fill="none" fill-rule="evenodd"><path d="M388 101.5a80.25 80.25 0 0156.92 23.58A80.25 80.25 0 01468.5 182h0v320.5c0 7.93-4.81 18.31-12.4 23.68-7.66 5.4-18.03 5.82-18.85 5.82-7.86 0-16.75-5.23-25.49-10.76-2.52-1.59-5.02-3.17-7.49-4.58-18.53-10.57-27.79-16.02-34.23-19.8-4.27-2.52-7.28-4.3-10.96-6.36h0H111a80.25 80.25 0 01-56.92-23.58A80.25 80.25 0 0130.5 410h0V182a80.25 80.25 0 0123.58-56.92A80.25 80.25 0 01111 101.5h0zm-.02 34H111c-12.7 0-24.21 5.1-32.6 13.35a46.35 46.35 0 00-13.9 32.36V410c0 12.7 5.1 24.21 13.35 32.6a46.35 46.35 0 0032.36 13.9h257.24c43.7 25.2 47.68 27.5 67.1 38.36.04-10.81 0-26.42-.05-41.44v-1.35c-.07-17.82-.11-34.57 0-41.28V182c0-12.7-5.1-24.21-13.35-32.6a46.35 46.35 0 00-32.36-13.9h-.8z" stroke="url(#a)" stroke-width="9" fill="url(#b)" fill-rule="nonzero"/><path d="M258 67v39h-15V67c3.22.92 5.72 1.38 7.5 1.38 1.78 0 4.28-.46 7.5-1.38zm-8-67a30 30 0 110 60 30 30 0 010-60zm0 15a15 15 0 100 30 15 15 0 000-30z" fill="#FCA0D6"/><path d="M29 207c.3 0 6-.02 6 0v149H24a21 21 0 01-21-21V228a21 21 0 0121-21h5zm0 15h-5a6 6 0 00-6 5.78V335a6 6 0 005.78 6H29a6 6 0 006-5.78V228a6 6 0 00-5.78-6H29zM470 207h-6v149h11a21 21 0 0021-21V228a21 21 0 00-21-21h-5zm0 15h5a6 6 0 016 5.78v107.23a6 6 0 01-5.77 6H470a6 6 0 01-6-5.78V228.01a6 6 0 015.78-6h.22z" fill="#FCA0D6" fill-rule="nonzero" opacity=".9"/><path d="M182.1 347.6c10.1-4.7 16.7-14 20.5-28.6 3-11.1 1.9-37.4-1.8-45.5-1.4-3.2-5.7-4.9-9-3.6-3.9 1.5-5.1 5.6-3.9 13.2 1.6 9.5 1.4 27.5-.4 34.4-3.2 12.3-10.5 18.5-22 18.5-11.1-.1-17.6-5.1-20.6-16-1.8-6.4-1.5-23.9.6-34.8 1.6-8.4 1.6-9.4.1-11.6-2.9-4.5-9.2-4.6-12-.3-3.9 5.8-6 36.8-3.5 48.9 2.1 9.9 8.3 19.4 15.5 23.9 6.3 3.8 11.3 4.9 21.4 4.6 7.8-.3 10.5-.9 15.1-3.1zm169.1.1c9.2-4.5 15.2-12.5 18.3-24.4 3-11.5 1-43.8-3.1-50-2.8-4.3-9.1-4.2-12 .2-1.4 2.2-1.4 3.3.2 12.2 2 11.5 2.2 27.9.5 34.3-3 10.9-9.5 15.9-20.6 16-11.5 0-18.8-6.2-22-18.5-1.8-6.9-2-24.9-.4-34.4 1.2-7.7.1-11.4-4-13.1-3.5-1.4-7.4.2-8.9 3.5-3.7 8.1-4.8 34.4-1.8 45.5 4.6 17.4 13.4 27.6 27 31.1 1.7.4 7.2.7 12.2.6 7.5-.2 10-.7 14.6-3z" fill="#666472" fill-rule="nonzero"/><path d="M243 396.1c1.4-1 3.6-3.5 5-5.5 2.2-3.4 2.6-3.6 3.5-2 .5 1 2.6 3.6 4.6 5.6 3.3 3.5 4.1 3.8 9 3.8 6.3 0 10.9-2.4 14-7.2 1.7-2.8 2-4.5 1.6-11.3-.4-8.3-3.6-17.8-6.3-18.9-1.9-.7-4.7 2.3-3.8 4.3 6.7 15.3 5.5 25-3.1 26.7-6.9 1.3-10.7-3.6-12.8-16.6-1.1-7-1.4-7.5-3.7-7.5-2.7 0-3.1.8-5 10.7-1.9 9.8-7.1 15-13.4 13.4-7-1.7-8.6-9.2-4.1-20.1 3-7.1 3.1-9.1.8-10-2.3-.8-4.6 2-7.3 9.3-2.7 7.1-3 15.6-.7 19.9 4 7.5 14.9 10.2 21.7 5.4z" fill="#989AA1" fill-rule="nonzero"/><path d="M152 379a1 1 0 011 1v10a1 1 0 11-2 0v-10a1 1 0 011-1zm5.5 0a1 1 0 011 1v10a1 1 0 11-2 0v-10a1 1 0 011-1zm5.5 0a1 1 0 011 1v10a1 1 0 11-2 0v-10a1 1 0 011-1zM338 379a1 1 0 011 1v10a1 1 0 11-2 0v-10a1 1 0 011-1zm5.5 0a1 1 0 011 1v10a1 1 0 11-2 0v-10a1 1 0 011-1zm5.5 0a1 1 0 011 1v10a1 1 0 11-2 0v-10a1 1 0 011-1z" fill="#DFA1C5"/></g></svg>
